assets/Melting face/Flat/melting_face_flat.svg

<svg width="32" height="32" viewBox="0 0 32 32" fill="none" xmlns="http://www.w3.org/2000/svg">
<path d="M29 14.5C29 16.2205 28.731 17.8597 28.1929 19.3514L27.7956 20.6447C27.5965 21.6633 28.6132 22.5561 29.5267 23.1465C30.3344 23.6685 31 24.1777 31 25.3713C31 25.4414 30.9928 25.5122 30.979 25.583C30.9675 25.4917 30.9515 25.405 30.9313 25.3224C30.7299 25.9086 30.1161 26.4569 29.5 26.5626C29.1824 26.5882 28.9361 26.5747 28.7076 26.5622C28.197 26.5342 27.7754 26.511 26.8457 26.9407C26.3592 27.1656 26.0485 27.4398 25.7557 27.6984C25.2386 28.155 24.7769 28.5626 23.5 28.5626C22.7816 28.6571 22.0356 28.4394 21.2932 28.2229C20.2051 27.9054 19.1249 27.5903 18.1509 28.2636C17.8892 28.4444 17.6455 28.6239 17.4089 28.7982C16.1028 29.7598 15.0124 30.5626 12.3219 30.5626C9.73635 30.5626 7.26527 29.0251 5.49155 27.2737C4.87853 26.6683 4.29907 26.6731 3.53558 26.6794C3.43309 26.6803 3.32728 26.6811 3.21762 26.6806C2.20059 26.7576 1.30784 26.1325 1.06498 25.2563C1.04622 25.3333 1.03142 25.4105 1.02071 25.4871C1.00707 25.398 1 25.3069 1 25.2142C1 24.4596 1.4438 23.5536 2.18435 23.2469C3.49598 22.7039 4.68668 21.7889 4.14358 20.1899L4.11762 20.128C3.3725 18.4365 3 16.5245 3 14.5C3 7.59644 7.33161 2 16 2C24.6684 2 29 7.59644 29 14.5Z" fill="#FFB02E"/>
<path d="M1.06498 24.6938C1.02221 24.8694 1 25.0458 1 25.2146C1 26.3304 2.02309 27.2086 3.21762 27.1181C3.32728 27.1186 3.43309 27.1178 3.53558 27.1169C4.29907 27.1106 4.87853 27.1058 5.49155 27.7112C7.26527 29.4626 9.73635 31.0001 12.3219 31.0001C15.0124 31.0001 16.1027 30.1974 17.4088 29.2357C17.6455 29.0614 17.8892 28.882 18.1509 28.7011C19.1249 28.0278 20.2051 28.3429 21.2932 28.6604C22.0356 28.8769 22.7816 29.0946 23.5 29.0001C24.7769 29.0001 25.2386 28.5925 25.7557 28.1359C26.0485 27.8773 26.3592 27.6031 26.8457 27.3782C27.7754 26.9485 28.197 26.9717 28.7076 26.9997C28.9361 27.0122 29.1824 27.0257 29.5 27.0001C30.2517 26.8712 31 26.0833 31 25.3717C31 25.1446 30.9759 24.9423 30.9313 24.7599C30.7299 25.3461 30.1161 25.8944 29.5 26.0001C29.1824 26.0257 28.9361 26.0122 28.7076 25.9997C28.197 25.9717 27.7754 25.9485 26.8457 26.3782C26.3592 26.6031 26.0485 26.8773 25.7557 27.1359C25.2386 27.5925 24.7769 28.0001 23.5 28.0001C22.7816 28.0946 22.0356 27.8769 21.2932 27.6604C20.2051 27.3429 19.1249 27.0278 18.1509 27.7011C17.8892 27.882 17.6455 28.0614 17.4088 28.2357C16.1027 29.1974 15.0124 30.0001 12.3219 30.0001C9.73635 30.0001 7.26527 28.4626 5.49155 26.7112C4.87853 26.1058 4.29907 26.1106 3.53558 26.1169C3.43309 26.1178 3.32728 26.1186 3.21762 26.1181C2.20059 26.1951 1.30784 25.57 1.06498 24.6938Z" fill="#FF822D"/>
<path d="M3.26456 25.2048C3.24559 25.2088 3.23702 25.2115 3.23702 25.2115C3.23702 25.2115 3.23706 25.2115 3.23713 25.2115C2.84417 25.3424 2.41943 25.1301 2.28845 24.7371C2.15746 24.3442 2.36983 23.9194 2.76279 23.7884C3.18016 23.6493 3.90955 23.6294 4.64601 23.7693C5.4089 23.9143 6.31552 24.255 7.0302 24.9695C8.04166 25.9806 9.84177 27.7501 12.5 27.7501C14.0702 27.7501 14.924 27.3135 15.6355 26.8209C15.8153 26.6965 15.9861 26.5681 16.1674 26.4319L16.195 26.4112C16.3822 26.2705 16.5823 26.1207 16.792 25.9796C17.2178 25.6927 17.705 25.4257 18.3181 25.2725C19.266 25.0355 20.2898 25.198 21.1071 25.3729C21.3218 25.4188 21.5769 25.4787 21.8083 25.5331C21.9771 25.5727 22.1332 25.6094 22.2519 25.6355C22.5998 25.7121 22.8395 25.75 23 25.75C23.8034 25.75 24.317 25.3963 25.0584 24.8857C25.149 24.8233 25.2431 24.7586 25.3414 24.6918C26.2396 24.0825 27.3476 23.4642 29.1233 23.7601C29.5318 23.8282 29.8079 24.2147 29.7398 24.6232C29.6717 25.0318 29.2852 25.3078 28.8767 25.2397C27.6524 25.0357 26.9437 25.4175 26.1835 25.9331C26.0986 25.9908 26.0111 26.0521 25.9204 26.1155C25.2054 26.6162 24.3003 27.25 23 27.25C22.6604 27.25 22.2794 27.1775 21.9294 27.1005C21.7399 27.0587 21.5781 27.0203 21.4168 26.9821C21.2237 26.9363 21.0314 26.8906 20.7933 26.8397C19.994 26.6687 19.2678 26.5812 18.6818 26.7277C18.2949 26.8244 17.9696 26.9949 17.6298 27.2237C17.4567 27.3403 17.2857 27.4679 17.096 27.6104L17.0628 27.6354C16.8864 27.768 16.6939 27.9126 16.4894 28.0542C15.5759 28.6867 14.4297 29.2501 12.5 29.2501C9.18956 29.2501 7.00004 27.0606 5.99792 26.0585C5.98841 26.049 5.97901 26.0396 5.96971 26.0303C5.53386 25.5946 4.94049 25.3521 4.36601 25.2429C4.08282 25.1891 3.81952 25.1709 3.60722 25.174C3.5013 25.1756 3.41278 25.1825 3.34461 25.1915C3.31073 25.1959 3.28413 25.2006 3.26456 25.2048Z" fill="#F9C23C"/>
<path d="M15.5 10.25C15.5 12.3211 13.8211 14 11.75 14C9.67893 14 8 12.3211 8 10.25C8 8.17893 9.67893 6.5 11.75 6.5C13.8211 6.5 15.5 8.17893 15.5 10.25Z" fill="white"/>
<path d="M25.25 12C25.25 14.0711 23.5711 15.75 21.5 15.75C19.4289 15.75 17.75 14.0711 17.75 12C17.75 9.92893 19.4289 8.25 21.5 8.25C23.5711 8.25 25.25 9.92893 25.25 12Z" fill="white"/>
<path d="M12.25 13C13.7688 13 15 11.7688 15 10.25C15 8.73122 13.7688 7.5 12.25 7.5C10.7312 7.5 9.5 8.73122 9.5 10.25C9.5 11.7688 10.7312 13 12.25 13Z" fill="#402A32"/>
<path d="M21 14.5C22.5188 14.5 23.75 13.2688 23.75 11.75C23.75 10.2312 22.5188 9 21 9C19.4812 9 18.25 10.2312 18.25 11.75C18.25 13.2688 19.4812 14.5 21 14.5Z" fill="#402A32"/>
<path d="M10.9012 15.6037C11.383 15.3378 11.9886 15.5112 12.257 15.9907L12.2595 15.9949C12.2634 16.0016 12.2715 16.0151 12.2837 16.0344C12.3081 16.0732 12.3488 16.1353 12.4062 16.2142C12.5216 16.3726 12.7011 16.5945 12.9473 16.8308C13.4401 17.3039 14.1795 17.8163 15.1961 18.0196C16.2267 18.2257 17.1692 18.0563 17.8712 17.8223C18.22 17.706 18.5001 17.5768 18.689 17.479C18.7774 17.4333 18.8653 17.3856 18.9492 17.3321C19.4083 17.029 20.0265 17.1537 20.332 17.6119C20.6384 18.0715 20.5143 18.6923 20.0547 18.9987C20.011 19.0278 19.9661 19.0552 19.921 19.0821C19.8457 19.127 19.7404 19.1869 19.6079 19.2554C19.3437 19.3921 18.9675 19.565 18.5038 19.7196C17.5808 20.0273 16.2733 20.2747 14.8039 19.9808C13.3205 19.6841 12.2521 18.9359 11.5622 18.2736C11.2169 17.9421 10.9614 17.6276 10.7894 17.3914C10.7723 17.3679 10.6208 17.165 10.509 16.9624C10.2421 16.4789 10.4177 15.8706 10.9012 15.6037Z" fill="#402A32"/>
</svg>

<svg xmlns="http://www.w3.org/2000/svg" width="32" height="32" fill="none"><path fill="#FFB02E" d="M29 14.5c0 1.72-.269 3.36-.807 4.851l-.397 1.294c-.2 1.018.817 1.911 1.73 2.502.808.522 1.474 1.03 1.474 2.224 0 .07-.007.141-.021.212a2.312 2.312 0 0 0-.048-.26c-.201.586-.815 1.134-1.431 1.24-.318.025-.564.012-.792 0-.511-.029-.933-.052-1.862.378-.487.225-.797.499-1.09.757-.517.457-.98.865-2.256.865-.718.094-1.464-.124-2.207-.34-1.088-.318-2.168-.633-3.142.04-.262.181-.506.36-.742.535-1.306.962-2.397 1.765-5.087 1.765-2.586 0-5.057-1.538-6.83-3.29-.613-.605-1.193-.6-1.956-.594l-.318.002c-1.017.077-1.91-.549-2.153-1.425a2.352 2.352 0 0 0-.044.231c-.014-.089-.021-.18-.021-.273 0-.754.444-1.66 1.184-1.967 1.312-.543 2.503-1.458 1.96-3.057l-.026-.062C3.372 18.436 3 16.524 3 14.5 3 7.596 7.332 2 16 2s13 5.596 13 12.5Z"/><path fill="#FF822D" d="M1.065 24.694a2.214 2.214 0 0 0-.065.52c0 1.116 1.023 1.995 2.218 1.904l.318-.001c.763-.006 1.343-.011 1.956.594 1.773 1.752 4.244 3.29 6.83 3.29 2.69 0 3.78-.804 5.087-1.765.236-.175.48-.354.742-.535.974-.673 2.054-.358 3.142-.04.743.216 1.489.434 2.207.34 1.277 0 1.739-.409 2.256-.865.293-.259.603-.533 1.09-.758.93-.43 1.351-.406 1.862-.378.228.012.474.026.792 0 .752-.129 1.5-.917 1.5-1.628 0-.227-.024-.43-.069-.612-.201.586-.815 1.134-1.431 1.24-.318.026-.564.012-.792 0-.511-.028-.933-.052-1.862.378-.487.225-.797.5-1.09.758-.517.457-.98.864-2.256.864-.718.095-1.464-.123-2.207-.34-1.088-.317-2.168-.632-3.142.041-.262.181-.506.36-.742.535-1.306.961-2.397 1.764-5.087 1.764-2.586 0-5.057-1.537-6.83-3.289-.613-.605-1.193-.6-1.956-.594-.103 0-.209.002-.318.001-1.017.077-1.91-.548-2.153-1.424Z"/><path fill="#F9C23C" d="M3.265 25.205a.33.33 0 0 0-.028.007.75.75 0 0 1-.474-1.424c.417-.139 1.147-.159 1.883-.019.763.145 1.67.486 2.384 1.2 1.012 1.012 2.812 2.781 5.47 2.781 1.57 0 2.424-.436 3.136-.93.18-.123.35-.252.531-.388l.028-.02c.187-.142.387-.291.597-.432.426-.287.913-.554 1.526-.707.948-.238 1.972-.075 2.79.1.214.046.469.106.7.16.17.04.325.076.444.102.348.077.588.115.748.115.803 0 1.317-.354 2.058-.864l.283-.194c.899-.61 2.007-1.228 3.782-.932a.75.75 0 0 1-.246 1.48c-1.225-.204-1.933.178-2.694.693l-.263.183c-.715.5-1.62 1.134-2.92 1.134-.34 0-.72-.073-1.07-.15-.19-.041-.352-.08-.513-.118-.193-.046-.386-.091-.624-.142-.799-.171-1.525-.259-2.111-.112-.387.096-.712.267-1.052.496-.173.116-.344.244-.534.386l-.033.025c-.177.133-.37.278-.574.42-.913.632-2.06 1.195-3.989 1.195-3.31 0-5.5-2.19-6.502-3.192a75.55 75.55 0 0 1-.028-.028c-.436-.435-1.03-.678-1.604-.787a3.838 3.838 0 0 0-.759-.069 2.31 2.31 0 0 0-.342.03Z"/><path fill="#fff" d="M15.5 10.25a3.75 3.75 0 1 1-7.5 0 3.75 3.75 0 0 1 7.5 0ZM25.25 12a3.75 3.75 0 1 1-7.5 0 3.75 3.75 0 0 1 7.5 0Z"/><path fill="#402A32" d="M12.25 13a2.75 2.75 0 1 0 0-5.5 2.75 2.75 0 0 0 0 5.5ZM21 14.5A2.75 2.75 0 1 0 21 9a2.75 2.75 0 0 0 0 5.5ZM10.901 15.604a1 1 0 0 1 1.356.387l.002.004.025.04c.024.038.065.1.122.18.116.158.295.38.541.616a4.51 4.51 0 0 0 2.25 1.189c1.03.206 1.972.036 2.674-.198.349-.116.63-.245.818-.343.088-.046.176-.093.26-.147A1 1 0 0 1 20.055 19c-.044.029-.089.056-.134.083a7.762 7.762 0 0 1-1.417.637c-.923.308-2.23.556-3.7.262a6.511 6.511 0 0 1-3.242-1.707 6.704 6.704 0 0 1-.773-.883c-.017-.023-.168-.226-.28-.429a1 1 0 0 1 .392-1.358Z"/></svg>
